svg/fluentui-system-icons/ic_fluent_eye_12_filled.svg

<svg width="12" height="12" viewBox="0 0 12 12" fill="none" xmlns="http://www.w3.org/2000/svg">
<path d="M1.97433 6.65857C1.88683 6.92025 1.60384 7.06162 1.34202 6.97435C1.08005 6.88702 0.93847 6.60386 1.02579 6.34189C1.01669 6.37235 1.02617 6.34078 1.02617 6.34078C1.03169 6.32438 1.03759 6.30811 1.04363 6.29189C1.05392 6.26424 1.06872 6.22604 1.0884 6.17879C1.12774 6.08438 1.18683 5.95334 1.26888 5.79787C1.43254 5.48778 1.69025 5.07538 2.06906 4.66214C2.83437 3.82726 4.08679 3 6.00014 3C7.91348 3 9.16591 3.82726 9.93121 4.66214C10.31 5.07538 10.5677 5.48778 10.7314 5.79787C10.8134 5.95334 10.8725 6.08438 10.9119 6.17879C10.9316 6.22604 10.9463 6.26424 10.9566 6.29189C10.9597 6.30015 10.97 6.35247 10.98 6.40273C10.989 6.44843 10.9977 6.49242 11.0002 6.5C11.0002 6.5 11.0837 6.83252 10.6582 6.97435C10.3968 7.06149 10.1143 6.92068 10.0263 6.65976L10.0259 6.65857L10.0255 6.65748L10.0195 6.64073C10.0134 6.62444 10.0033 6.59819 9.98879 6.56341C9.95977 6.49375 9.91339 6.39042 9.84701 6.26463C9.71379 6.01222 9.50275 5.67462 9.19406 5.33786C8.58437 4.67274 7.58679 4 6.00014 4C4.41348 4 3.41591 4.67274 2.80621 5.33786C2.49752 5.67462 2.28648 6.01222 2.15327 6.26463C2.08688 6.39042 2.0405 6.49375 2.01148 6.56341C1.99699 6.59819 1.98688 6.62444 1.98081 6.64073L1.97433 6.65857ZM4.00024 7C4.00024 5.89543 4.89567 5 6.00024 5C7.10481 5 8.00024 5.89543 8.00024 7C8.00024 8.10457 7.10481 9 6.00024 9C4.89567 9 4.00024 8.10457 4.00024 7Z" fill="#212121"/>
</svg>

<svg xmlns="http://www.w3.org/2000/svg" width="12" height="12"><path d="M1.974 6.659a.5.5 0 0 1-.948-.317c-.01.03 0-.001 0-.001a1.633 1.633 0 0 1 .062-.162c.04-.095.099-.226.18-.381.165-.31.422-.723.801-1.136C2.834 3.827 4.087 3 6 3c1.913 0 3.166.827 3.931 1.662a5.479 5.479 0 0 1 .98 1.517l.046.113c.003.008.013.06.023.11L11 6.5s.084.333-.342.474a.5.5 0 0 1-.632-.314v-.003l-.006-.016a3.678 3.678 0 0 0-.172-.376 4.477 4.477 0 0 0-.654-.927C8.584 4.673 7.587 4 6 4s-2.584.673-3.194 1.338a4.477 4.477 0 0 0-.795 1.225 2.209 2.209 0 0 0-.03.078l-.007.018ZM4 7a2 2 0 1 1 4 0 2 2 0 0 1-4 0Z"/></svg>
